X: 976
T: All This Wasted Time
R: waltz
M: 3/4
K: Fmajor
fg|"F"a3gf2|"Bb"d3c"Dm"A2|"CM7"c3 dc2|c4fg|
"F"a3gf2|"Dm"d3cA2|"Gm9"G3 AG2|G4fg|
"F"a3gf2|"Bb"d3c"Dm"A2|"C"c3 dc2|c4fg|
"F"a3gf2|"Dm"d3cA2|"Dm7"c2"Gm9"f2"C"e2|"F"f4:|
fe|"F"f3ga2|"Gm"g3f"C"e2|"Dm"d3cA2|"C"c4 d2|
"F"f3ga2|"Gm"g3f"C"e2|"F"f3g"Bb"b2|"Dm"a4f2|
"F"f3ga2|"Gm"g3f"C"e2|"Dm"d3cA2|"C"c4 d2|
"F"f3ga2|"Gm"g3f"C"e2|"Dm7"c2"Gm9"f2"C"e2|"F"f4:|

